X: 3159
T: Beauty Spot, The
R: reel
M: 4/4
K: Dmixolydian
A2 AG A2 dB|cBcG EF G/F/E|A2 AG A2 dB|cBcG ED D/D/D2|
A2 AG A2 dB|cBcG EF G/F/E|~A3 d ~B3d|cAGE EDDg||
ed^cd eddg|ed^cd eaag|ed^cd eddc|ABcd eddg|
ed^cd eddg|ed^cd eaag|~f3d edcA|GAcd ed d2||

